X:14677
T:Rutsch hin, rutsch her.
R:
O:Alsace - Elsass
A:
S:
B:La tradition Alsacienne.
Z:transcription (partition) : eric.forgeot@caramail.com
N:
M:2/4
L:1/8
Q:1/4=130
K:G
d | d2 z c | B2 z d | d>c ce | e>d dd | d2 z c | B2 z d | d>c cF | G zz B |
A>B
